source/img/index/interior.svg

<svg width="40" height="62" viewBox="0 0 40 62" fill="none" xmlns="http://www.w3.org/2000/svg">
<g opacity="0.5">
<path d="M15.162 37.7167C14.8627 38.7119 14.9625 39.9061 15.162 41.2994C15.6607 43.8869 16.8577 47.2705 17.556 50.9527H22.6433C23.3415 47.3701 24.5385 43.9864 25.137 41.2994C25.4363 39.9061 25.4363 38.6124 25.137 37.7167C24.8378 36.821 24.2393 36.1244 23.142 35.4277H17.157C15.96 36.1244 15.3615 36.821 15.162 37.7167Z" fill="#149080"/>
<path d="M26.9327 57.6211H13.1671C11.8703 57.6211 10.8728 58.6163 10.8728 59.8105V61.9999H13.1671H26.9327H29.2269V59.8105C29.2269 58.6163 28.2294 57.6211 26.9327 57.6211Z" fill="#149080"/>
<path d="M34.015 2.18943H22.3441C22.3441 0.995194 21.3466 0 20.0499 0C18.7531 0 17.7556 0.995194 17.7556 2.18943H6.08478L0 27.5668C0.798005 27.0693 1.59602 26.5717 2.59352 26.5717C3.99003 26.5717 4.78803 27.3678 5.48629 27.9649C6.18454 28.562 6.68329 28.7611 6.88279 28.7611C7.18204 28.7611 7.68079 28.4625 8.37905 27.9649C9.0773 27.4673 9.97505 26.5717 11.2718 26.5717C12.5686 26.5717 13.4663 27.3678 14.1646 27.9649C14.8628 28.4625 15.3616 28.7611 15.6608 28.7611C15.7606 28.7611 15.9601 28.6616 16.2593 28.562C16.4588 28.4625 16.7581 28.164 17.1571 27.9649C17.6559 27.5668 18.2544 26.9697 19.1521 26.7707C19.4514 26.6712 19.7506 26.6712 20.0499 26.6712C21.3466 26.6712 22.2444 27.4673 22.9426 28.0644C23.6409 28.562 24.1397 28.8606 24.4389 28.8606C24.7382 28.8606 25.2369 28.562 25.8354 28.0644C26.5337 27.4673 27.4314 26.6712 28.7282 26.6712C30.1247 26.6712 30.9227 27.4673 31.621 28.0644C31.9202 28.363 32.2194 28.562 32.5187 28.6616C32.7182 28.7611 32.9177 28.8606 33.1172 28.8606C33.4165 28.8606 33.9152 28.562 34.5137 27.9649C35.212 27.3678 36.1097 26.5717 37.4065 26.5717C38.404 26.5717 39.202 27.0693 40 27.5668L34.015 2.18943Z" fill="#149080"/>
<path d="M23.4415 53.1426H16.5587C15.8604 53.1426 15.4614 53.6402 15.4614 54.2373C15.4614 54.8344 15.9602 55.332 16.5587 55.332H23.4415C24.1397 55.332 24.5387 54.8344 24.5387 54.2373C24.6385 53.6402 24.1397 53.1426 23.4415 53.1426Z" fill="#149080"/>
<path d="M20.0499 28.7598C19.9501 28.7598 19.7506 28.8593 19.4514 28.9588C19.2519 29.0583 19.0524 29.2574 18.8529 29.3569V33.0391H21.1471V29.4564C20.6484 29.0583 20.2494 28.7598 20.0499 28.7598Z" fill="#149080"/>
</g>
</svg>

<svg width="40" height="62" fill="none" xmlns="http://www.w3.org/2000/svg"><g opacity=".5" fill="#149080"><path d="M15.16 37.72c-.3 1-.2 2.19 0 3.58.5 2.59 1.7 5.97 2.4 9.65h5.08c.7-3.58 1.9-6.96 2.5-9.65.3-1.4.3-2.69 0-3.58-.3-.9-.9-1.6-2-2.3h-5.98c-1.2.7-1.8 1.4-2 2.3zM26.93 57.62H13.17c-1.3 0-2.3 1-2.3 2.19V62h18.36v-2.19c0-1.2-1-2.19-2.3-2.19zM34.02 2.19H22.34c0-1.2-1-2.19-2.29-2.19-1.3 0-2.3 1-2.3 2.19H6.09L0 27.57c.8-.5 1.6-1 2.6-1 1.39 0 2.19.8 2.89 1.4.7.6 1.2.8 1.4.8.3 0 .8-.3 1.49-.8.7-.5 1.6-1.4 2.9-1.4 1.29 0 2.19.8 2.88 1.4.7.5 1.2.8 1.5.8.1 0 .3-.1.6-.2.2-.1.5-.4.9-.6.5-.4 1.1-1 2-1.2.3-.1.6-.1.89-.1 1.3 0 2.2.8 2.9 1.4.7.5 1.19.8 1.49.8.3 0 .8-.3 1.4-.8.7-.6 1.6-1.4 2.89-1.4 1.4 0 2.2.8 2.9 1.4.29.3.59.5.89.6.2.1.4.2.6.2.3 0 .8-.3 1.4-.9.7-.6 1.59-1.4 2.89-1.4 1 0 1.8.5 2.59 1L34.02 2.19zM23.44 53.14h-6.88c-.7 0-1.1.5-1.1 1.1 0 .6.5 1.1 1.1 1.1h6.88c.7 0 1.1-.5 1.1-1.1.1-.6-.4-1.1-1.1-1.1z"/><path d="M20.05 28.76c-.1 0-.3.1-.6.2-.2.1-.4.3-.6.4v3.68h2.3v-3.58c-.5-.4-.9-.7-1.1-.7z"/></g></svg>
